public/logo/ferrero.svg

<svg width="461" height="58" viewBox="0 0 461 58" fill="none" xmlns="http://www.w3.org/2000/svg">
<g clip-path="url(#clip0_268_277)">
<path fill-rule="evenodd" clip-rule="evenodd" d="M223.47 13.5937C221.341 13.5937 220.759 15.2332 220.759 16.6632V22.9386H230.95C236.88 22.9067 236.88 13.5619 230.727 13.5937H223.466H223.47ZM356.009 13.5937C353.92 13.5937 353.334 15.2332 353.334 16.6632V22.9386H363.102C369.019 22.843 370.127 14.0218 362.888 13.5937H356.009ZM361.385 56.7203H350.191C346.667 56.866 344.574 54.3431 344.138 51.6608C343.629 54.4388 341.173 56.907 337.431 56.7203L326.496 56.7613L326.527 44.6567L332.313 44.5884C333.88 44.6567 334.638 43.5091 334.638 42.9216V35.3028C334.638 32.3927 329.597 29.847 328.943 29.2049C329.584 28.4216 334.824 25.5071 334.688 23.0798L334.751 15.8207C334.751 14.7778 334.565 13.4753 332.903 13.4753H326.532L326.5 1.11573H337.558C340.859 1.25235 343.879 3.21968 344.174 6.89022C344.32 3.16504 348.357 1.18859 350.641 1.11573H372.584C384.409 1.11573 388.419 9.3585 388.364 16.0848C388.283 21.8001 384.368 28.3852 377.125 28.5765C385.948 30.3343 384.404 36.505 384.681 42.612C384.722 43.5091 385.335 44.6567 386.948 44.6567H390.903L390.88 56.7613L379.055 56.8068C376.884 56.8706 375.717 57.0846 373.12 56.3514C367.62 54.7803 365.804 47.5166 365.509 40.2849C365.373 37.2382 362.884 35.3756 360.014 35.3073H353.189V42.6894C353.229 43.5137 354.383 44.6613 355.795 44.6613H361.453L361.376 56.7249L361.385 56.7203ZM228.993 56.6884L228.929 44.4654H223.275C221.772 44.4654 220.759 43.3315 220.719 42.5664V35.1434H227.48C230.368 35.1889 232.762 37.0743 232.88 40.0799C233.198 47.3254 235.023 54.9807 240.532 56.1465C243.088 56.7294 245.109 56.693 246.508 56.652L258.401 56.5974V44.47H254.405C252.956 44.47 252.234 43.3361 252.207 42.4526C252.089 36.3684 253.433 30.1931 244.619 28.4307C251.88 28.2349 255.808 21.7045 255.899 15.9254C255.931 9.26742 251.698 0.737743 240.173 0.979106H218.194C215.855 1.12484 211.845 3.04663 211.691 6.72628C211.427 3.04663 208.421 1.09296 205.061 0.979106H194.007L194.039 13.4116L200.397 13.3888C202.073 13.4116 202.231 14.5774 202.231 15.6749L202.073 22.9113C202.168 25.3386 196.95 28.2349 196.31 29.0091C196.95 29.6649 201.995 32.1878 202.041 35.1297L202.073 42.7395C202.073 43.3361 201.301 44.47 199.852 44.47H194.08L194.175 56.693L205.111 56.6475C208.893 56.8706 211.327 54.3887 211.841 51.6289C212.199 54.2885 214.306 56.8433 217.894 56.6884H228.997H228.993ZM319.702 56.8068L319.766 33.1578H306.06L306.092 42.8351C306.092 43.5137 305.92 44.6613 304.353 44.6613H290.857C289.235 44.6613 288.518 43.8916 288.518 42.8715V35.3073H291.311C291.779 35.3073 292.178 35.6944 292.137 36.0268C292.137 35.7354 292.178 39.2556 292.178 39.2556L303.372 39.2238V19.0221L292.178 19.1132V22.128C292.178 22.5652 291.779 22.9158 291.343 22.9158H288.613V15.8298C288.613 14.6913 289.199 13.5345 290.911 13.5345H304.081C305.466 13.5801 306.092 14.6685 306.129 15.8298V25.3568L319.702 25.2748L319.67 1.12484H285.475C283.119 1.26146 279.622 3.16959 279.458 6.83558C279.163 3.16959 276.175 1.26146 272.783 1.12484H262.134L262.216 13.5755L268.11 13.4844C269.613 13.5345 270.035 14.7231 270.067 15.8298V23.0479C270.144 25.4205 264.904 28.3898 264.268 29.1321C264.904 29.7742 269.949 32.3518 270.013 35.2572L269.949 42.8761C269.949 43.582 269.095 44.6658 267.538 44.6658H261.839L261.907 56.8478L272.787 56.816C276.602 56.9936 279.027 54.5298 279.545 51.7473C279.917 54.4524 282.551 56.9207 285.589 56.816H319.711L319.702 56.8068ZM119.097 56.7203L119.128 33.1533H105.432L105.482 42.8306C105.482 43.5091 105.042 44.6567 103.697 44.6567H90.2329C88.7843 44.6567 87.9578 43.8461 87.8942 42.867L87.9169 35.3028H90.7234C91.1775 35.3028 91.5362 35.7673 91.5362 36.0223C91.4817 35.7308 91.5362 39.2511 91.5362 39.2511L102.776 39.2192V19.0176L91.5589 19.1087V22.1234C91.5589 22.4604 91.1048 22.9113 90.7234 22.9113H87.9941L87.9623 15.8799C87.9623 14.7823 88.7343 13.4799 90.2783 13.4799H103.434C104.928 13.4799 105.441 14.6822 105.487 15.8662V25.3522L119.087 25.334L119.024 1.11573H84.8698C82.5584 1.25235 78.9981 3.16048 78.8937 6.89022C78.6257 3.16504 75.5559 1.2569 72.1773 1.11573H61.2967L61.2331 13.4753L67.4999 13.5254C69.2392 13.571 69.3618 14.8825 69.4253 15.8616V23.0798C69.5025 25.5071 64.2757 28.4216 63.6127 29.2049C64.2757 29.8061 69.3073 32.3927 69.3436 35.3028L69.3118 42.9216C69.3118 43.5091 68.5761 44.5884 66.955 44.6567H61.1786V56.7203H72.141C75.9555 56.907 78.385 54.4388 78.8982 51.6608C79.2342 54.3158 81.4004 56.866 84.9289 56.7203H119.101H119.097ZM155.117 13.5254C152.987 13.5254 152.406 15.1694 152.406 16.5675V22.843H162.596C168.727 22.9067 168.527 13.7805 162.374 13.5254H155.112H155.117ZM160.516 56.7203H149.295C145.771 56.866 143.61 54.3158 143.242 51.6608C142.76 54.4388 140.304 56.907 136.512 56.6884L125.613 56.7203V44.6567H131.403C132.933 44.6567 133.742 43.5091 133.742 42.867V35.2481C133.742 32.3426 128.715 29.7651 128.047 29.123C128.674 28.3852 133.932 25.4114 133.837 23.0388V15.8207C133.878 14.8825 133.401 13.4753 131.762 13.4753H125.559V1.11573H136.63C140.227 1.25235 143.001 3.16048 143.215 6.89022C143.374 3.16504 147.447 1.28423 149.708 1.11573H171.769C183.322 0.874364 187.482 9.29475 187.455 16.0165C187.377 21.75 183.463 28.3078 176.224 28.449C185.043 30.2478 183.862 36.3912 183.758 42.53C183.758 43.5137 184.507 44.6613 185.956 44.6613H189.952V56.6884H177.827C175.593 56.6429 174.208 56.7203 171.956 56.1784C166.597 54.9761 164.653 47.3345 164.317 40.1619C164.24 37.097 161.852 35.2527 158.981 35.1844H152.338V42.6165C152.338 43.5137 153.428 44.6613 154.904 44.6613H160.548C160.548 44.6613 160.548 56.7249 160.521 56.7249M424.63 45.3398C431.242 45.4355 434.357 37.0151 434.239 34.5468C434.185 31.7142 429.73 29.46 429.171 28.9545C429.921 28.3306 434.185 26.2721 434.239 23.2027C434.185 19.4411 431.115 12.7012 424.553 12.6647C417.927 12.4871 414.839 20.8984 414.976 23.3166C415.007 26.2129 419.421 28.4899 419.966 29C419.194 29.6284 414.912 31.6322 414.88 34.6697C414.839 38.486 418.064 45.2487 424.63 45.3353M424.794 58C442.849 57.9317 454.198 49.1424 455.16 34.5058C455.655 32.0876 459.297 30.184 461 28.9135C459.334 27.6475 455.614 25.885 455.083 23.4395C454.556 13.2067 448.662 -0.200385 424.349 -8.0413e-06C406.32 -0.0637643 395.144 8.57977 394.054 23.2027C393.559 25.6027 389.863 27.5108 388.183 28.7176C389.808 29.9973 393.528 31.7871 393.995 34.2827C394.472 44.4928 400.485 57.9681 424.798 57.9954M0.299863 1.11573H10.9852C14.323 1.11573 17.3065 3.10128 17.6244 6.77182C17.7697 3.10128 21.3617 1.2569 23.6777 1.11573H57.7137V25.1883H44.1447V15.8616C44.1856 14.7778 43.7088 13.4753 42.242 13.4753L28.6594 13.4526C27.2516 13.4753 26.7975 14.7732 26.743 15.8161V22.9022H29.059C29.4541 22.9022 29.831 22.4877 29.831 22.1507V19.013L41.034 18.9629V39.1828H29.8673V36.0724C29.8355 35.7263 29.4041 35.2982 29.0318 35.2982H26.7203L26.6794 42.7941C26.7203 43.5046 27.4923 44.6522 29.059 44.6522H34.8853V56.7158H23.6777C20.1356 56.8615 17.9967 54.3112 17.6244 51.6562C17.1158 54.4342 14.6817 56.9025 10.9171 56.7158L-0.00439453 56.7567V44.6522H6.13979C7.69287 44.6522 8.11973 43.5046 8.10611 42.7941L8.11519 35.1206C8.10611 32.1833 3.0291 29.633 2.39334 28.9545C3.0291 28.2304 8.26505 25.2611 8.16969 22.9067V15.725C8.16969 14.6822 7.79731 13.5254 6.26694 13.4799H0.377063L0.299863 1.11117V1.11573Z" fill="#2E453D"/>
</g>
<defs>
<clipPath id="clip0_268_277">
<rect width="461" height="58" fill="white"/>
</clipPath>
</defs>
</svg>

<?xml version="1.0" encoding="UTF-8"?>
<svg id="Vrstva_1" data-name="Vrstva 1" xmlns="http://www.w3.org/2000/svg" xmlns:xlink="http://www.w3.org/1999/xlink" viewBox="0 0 461 58">
  <defs>
    <style>
      .cls-1 {
        fill: none;
      }

      .cls-2 {
        fill: #2e453d;
        fill-rule: evenodd;
      }

      .cls-3 {
        clip-path: url(#clippath);
      }
    </style>
    <clipPath id="clippath">
      <rect class="cls-1" width="461" height="58"/>
    </clipPath>
  </defs>
  <g class="cls-3">
    <path class="cls-2" d="M223.47,13.59c-2.13,0-2.71,1.64-2.71,3.07v6.28h10.19c5.93-.03,5.93-9.38-.22-9.34h-7.26,0ZM356.01,13.59c-2.09,0-2.67,1.64-2.67,3.07v6.28h9.77c5.92-.1,7.03-8.92-.21-9.34h-6.88ZM361.39,56.72h-11.19c-3.52.15-5.62-2.38-6.05-5.06-.51,2.78-2.96,5.25-6.71,5.06l-10.93.04.03-12.1,5.79-.07c1.57.07,2.33-1.08,2.33-1.67v-7.62c0-2.91-5.04-5.46-5.7-6.1.64-.78,5.88-3.7,5.74-6.13l.06-7.26c0-1.04-.19-2.35-1.85-2.35h-6.37l-.03-12.36h11.06c3.3.14,6.32,2.1,6.62,5.77.15-3.73,4.18-5.7,6.47-5.77h21.94c11.82,0,15.83,8.24,15.78,14.97-.08,5.72-4,12.3-11.24,12.49,8.82,1.76,7.28,7.93,7.56,14.04.04.9.65,2.04,2.27,2.04h3.96l-.02,12.1-11.83.05c-2.17.06-3.34.28-5.93-.46-5.5-1.57-7.32-8.83-7.61-16.07-.14-3.05-2.62-4.91-5.49-4.98h-6.83v7.38c.04.82,1.19,1.97,2.61,1.97h5.66l-.08,12.06h0ZM228.99,56.69l-.06-12.22h-5.65c-1.5,0-2.52-1.13-2.56-1.9v-7.42h6.76c2.89.05,5.28,1.93,5.4,4.94.32,7.25,2.14,14.9,7.65,16.07,2.56.58,4.58.55,5.98.51l11.89-.05v-12.13h-4c-1.45,0-2.17-1.13-2.2-2.02-.12-6.08,1.23-12.26-7.59-14.02,7.26-.2,11.19-6.73,11.28-12.51.03-6.66-4.2-15.19-15.73-14.95h-21.98c-2.34.15-6.35,2.07-6.5,5.75-.26-3.68-3.27-5.63-6.63-5.75h-11.05l.03,12.43,6.36-.02c1.68.02,1.83,1.19,1.83,2.29l-.16,7.24c.1,2.43-5.12,5.32-5.76,6.1.64.66,5.68,3.18,5.73,6.12l.03,7.61c0,.6-.77,1.73-2.22,1.73h-5.77l.1,12.22,10.94-.05c3.78.22,6.22-2.26,6.73-5.02.36,2.66,2.46,5.21,6.05,5.06h11.1,0ZM319.7,56.81l.06-23.65h-13.71l.03,9.68c0,.68-.17,1.83-1.74,1.83h-13.5c-1.62,0-2.34-.77-2.34-1.79v-7.56h2.79c.47,0,.87.39.83.72,0-.29.04,3.23.04,3.23l11.19-.03v-20.2l-11.19.09v3.01c0,.44-.4.79-.84.79h-2.73v-7.09c0-1.14.59-2.3,2.3-2.3h13.17c1.39.05,2.01,1.13,2.05,2.3v9.53l13.57-.08-.03-24.15h-34.2c-2.36.14-5.85,2.04-6.02,5.71-.3-3.67-3.28-5.57-6.68-5.71h-10.65l.08,12.45,5.89-.09c1.5.05,1.93,1.24,1.96,2.35v7.22c.08,2.37-5.16,5.34-5.8,6.08.64.64,5.68,3.22,5.74,6.13l-.06,7.62c0,.71-.85,1.79-2.41,1.79h-5.7l.07,12.18,10.88-.03c3.82.18,6.24-2.29,6.76-5.07.37,2.71,3.01,5.17,6.04,5.07h34.12,0ZM119.1,56.72l.03-23.57h-13.7l.05,9.68c0,.68-.44,1.83-1.79,1.83h-13.46c-1.45,0-2.28-.81-2.34-1.79l.02-7.56h2.81c.45,0,.81.46.81.72-.05-.29,0,3.23,0,3.23l11.24-.03v-20.2l-11.22.09v3.01c0,.34-.45.79-.84.79h-2.73l-.03-7.03c0-1.1.77-2.4,2.32-2.4h13.16c1.49,0,2.01,1.2,2.05,2.39v9.49l13.6-.02-.06-24.22h-34.15c-2.31.14-5.87,2.04-5.98,5.77-.27-3.73-3.34-5.63-6.72-5.77h-10.88l-.06,12.36,6.27.05c1.74.05,1.86,1.36,1.93,2.34v7.22c.08,2.43-5.15,5.34-5.81,6.13.66.6,5.69,3.19,5.73,6.1l-.03,7.62c0,.59-.74,1.67-2.36,1.74h-5.78v12.06h10.96c3.81.19,6.24-2.28,6.76-5.06.34,2.65,2.5,5.21,6.03,5.06h34.17,0ZM155.12,13.53c-2.13,0-2.71,1.64-2.71,3.04v6.28h10.19c6.13.06,5.93-9.06-.22-9.32h-7.26,0ZM160.52,56.72h-11.22c-3.52.15-5.68-2.4-6.05-5.06-.48,2.78-2.94,5.25-6.73,5.03l-10.9.03v-12.06h5.79c1.53,0,2.34-1.15,2.34-1.79v-7.62c0-2.91-5.03-5.48-5.7-6.13.63-.74,5.89-3.71,5.79-6.08v-7.22c.04-.94-.44-2.35-2.08-2.35h-6.2V1.12h11.07c3.6.14,6.37,2.04,6.58,5.77.16-3.73,4.23-5.61,6.49-5.77h22.06c11.55-.24,15.71,8.18,15.69,14.9-.08,5.73-3.99,12.29-11.23,12.43,8.82,1.8,7.64,7.94,7.53,14.08,0,.98.75,2.13,2.2,2.13h4v12.03h-12.12c-2.23-.05-3.62.03-5.87-.51-5.36-1.2-7.3-8.84-7.64-16.02-.08-3.06-2.46-4.91-5.34-4.98h-6.64v7.43c0,.9,1.09,2.04,2.57,2.04h5.64s0,12.06-.03,12.06M424.63,45.34c6.61.1,9.73-8.32,9.61-10.79-.05-2.83-4.51-5.09-5.07-5.59.75-.62,5.01-2.68,5.07-5.75-.05-3.76-3.12-10.5-9.69-10.54-6.63-.18-9.71,8.23-9.58,10.65.03,2.9,4.44,5.17,4.99,5.68-.77.63-5.05,2.63-5.09,5.67-.04,3.82,3.18,10.58,9.75,10.67M424.79,58c18.05-.07,29.4-8.86,30.37-23.49.49-2.42,4.14-4.32,5.84-5.59-1.67-1.27-5.39-3.03-5.92-5.47C454.56,13.21,448.66-.2,424.35,0c-18.03-.06-29.2,8.58-30.3,23.2-.49,2.4-4.19,4.31-5.87,5.51,1.62,1.28,5.35,3.07,5.81,5.57.48,10.21,6.49,23.69,30.8,23.71M.3,1.12h10.69c3.34,0,6.32,1.99,6.64,5.66.15-3.67,3.74-5.51,6.05-5.66h34.04v24.07h-13.57v-9.33c.04-1.08-.44-2.39-1.9-2.39l-13.58-.02c-1.41.02-1.86,1.32-1.92,2.36v7.09h2.32c.4,0,.77-.41.77-.75v-3.14l11.2-.05v20.22h-11.17v-3.11c-.03-.35-.46-.77-.84-.77h-2.31l-.04,7.5c.04.71.81,1.86,2.38,1.86h5.83v12.06h-11.21c-3.54.15-5.68-2.4-6.05-5.06-.51,2.78-2.94,5.25-6.71,5.06L0,56.76v-12.1h6.14c1.55,0,1.98-1.15,1.97-1.86v-7.67c0-2.94-5.08-5.49-5.71-6.17.64-.72,5.87-3.69,5.78-6.05v-7.18c0-1.04-.37-2.2-1.9-2.25H.38L.3,1.11H.3Z"/>
  </g>
</svg>
